img/vector/icon-gift.svg

<svg enable-background="new 0 0 55.5 60" viewBox="0 0 55.5 60" xmlns="http://www.w3.org/2000/svg"><path d="m52.3 12.2h-7c.5-.7.8-1.4 1.1-2.2.6-2 .4-4.1-.6-5.9s-2.6-3.1-4.6-3.7-4.1-.4-5.9.6c-3.6 2-6.2 6.1-7.6 9-1.4-2.9-4-7.1-7.6-9-3.8-2-8.5-.6-10.5 3.1-1.4 2.7-1.2 5.8.5 8.1h-7c-1.7 0-3.1 1.4-3.1 3.1v9.4c0 1.7 1.4 3.1 3.1 3.1h.9v26.1c0 3.3 2.7 6 6 6h35.5c3.3 0 6-2.7 6-6v-26.1h.8c1.7 0 3.1-1.4 3.1-3.1v-9.4c.1-1.7-1.3-3.1-3.1-3.1zm-15.8-9.2c1.3-.7 2.7-.8 4.1-.4 1.3.4 2.4 1.3 3.1 2.6s.8 2.7.4 4.1c-.4 1.2-1.1 2.2-2.2 2.9h-12.5c1.1-2.6 3.6-7.2 7.1-9.2zm-24.8 2.2c1.5-2.6 4.7-3.6 7.3-2.2 3.5 1.9 6 6.6 7.1 9.1h-12.6c-2.3-1.4-3.1-4.5-1.8-6.9zm14.8 22.6v13.7h-20.1v-13.7zm-20.1 26.1v-10h20.2v13.7h-16.6c-2 0-3.6-1.7-3.6-3.7zm39.1 3.7h-16.6v-13.7h20.2v10c0 2-1.6 3.7-3.6 3.7zm3.6-16.1h-20.2v-13.7h20.2zm4-16.8c0 .4-.3.7-.7.7h-2s0 0 0 0h-22.7s0 0 0 0h-22.5s0 0 0 0h-2c-.4 0-.7-.3-.7-.7v-9.4c0-.4.3-.7.7-.7h49.2c.4 0 .7.3.7.7z" fill="#fff"/></svg>

<?xml version="1.0" encoding="utf-8"?>
<!-- Generator: Adobe Illustrator 21.0.0, SVG Export Plug-In . SVG Version: 6.00 Build 0) -->
<svg version="1.1" id="Layer_1" xmlns="http://www.w3.org/2000/svg" xmlns:xlink="http://www.w3.org/1999/xlink" x="0px" y="0px" viewBox="0 0 55.5 60" style="enable-background:new 0 0 55.5 60;" xml:space="preserve">
  <path fill="#ffffff"
    d="M52.3,12.2h-7c0.5-0.7,0.8-1.4,1.1-2.2c0.6-2,0.4-4.1-0.6-5.9c-1-1.8-2.6-3.1-4.6-3.7c-2-0.6-4.1-0.4-5.9,0.6
  c-3.6,2-6.2,6.1-7.6,9c-1.4-2.9-4-7.1-7.6-9c-3.8-2-8.5-0.6-10.5,3.1c-1.4,2.7-1.2,5.8,0.5,8.1h-7c-1.7,0-3.1,1.4-3.1,3.1v9.4
  c0,1.7,1.4,3.1,3.1,3.1H4v26.1c0,3.3,2.7,6,6,6h35.5c3.3,0,6-2.7,6-6V27.8h0.8c1.7,0,3.1-1.4,3.1-3.1v-9.4
  C55.5,13.6,54.1,12.2,52.3,12.2z M36.5,3c1.3-0.7,2.7-0.8,4.1-0.4C41.9,3,43,3.9,43.7,5.2c0.7,1.3,0.8,2.7,0.4,4.1
  c-0.4,1.2-1.1,2.2-2.2,2.9H29.4C30.5,9.6,33,5,36.5,3z M11.7,5.2C13.2,2.6,16.4,1.6,19,3c3.5,1.9,6,6.6,7.1,9.1H13.5
  C11.2,10.7,10.4,7.6,11.7,5.2z M26.5,27.8v13.7H6.4V27.8H26.5z M6.4,53.9v-10h20.2v13.7H10C8,57.6,6.4,55.9,6.4,53.9z M45.5,57.6
  H28.9V43.9h20.2v10C49.1,55.9,47.5,57.6,45.5,57.6z M49.1,41.5H28.9V27.8h20.2V41.5z M53.1,24.7c0,0.4-0.3,0.7-0.7,0.7h-2
  c0,0,0,0,0,0s0,0,0,0H27.7c0,0,0,0,0,0s0,0,0,0H5.2c0,0,0,0,0,0s0,0,0,0h-2c-0.4,0-0.7-0.3-0.7-0.7v-9.4c0-0.4,0.3-0.7,0.7-0.7h49.2
  c0.4,0,0.7,0.3,0.7,0.7V24.7z"/>
</svg>
